src/assets/img/index/icons/sharing.svg

<svg width="140" height="140" viewBox="0 0 140 140" fill="none"
    xmlns="http://www.w3.org/2000/svg">
    <g filter="url(#filter0_d)">
        <circle cx="70" cy="66" r="50" fill="white"/>
    </g>
    <path d="M95.002 83.1091L99.0204 86.524V95.8768" stroke="#A29EC0" stroke-width="2" stroke-linecap="round" stroke-linejoin="round"/>
    <path d="M83.6904 83.1091L79.6719 86.524" stroke="#A29EC0" stroke-width="2" stroke-linecap="round" stroke-linejoin="round"/>
    <path d="M44.998 83.1091L40.9795 86.524V95.8768" stroke="#A29EC0" stroke-width="2" stroke-linecap="round" stroke-linejoin="round"/>
    <path d="M56.3052 83.1091L60.3237 86.524" stroke="#A29EC0" stroke-width="2" stroke-linecap="round" stroke-linejoin="round"/>
    <path d="M64.3422 83.1091L60.3237 86.524" stroke="#A29EC0" stroke-width="2" stroke-linecap="round" stroke-linejoin="round"/>
    <path d="M75.6536 83.1091L79.672 86.524V95.8768" stroke="#A29EC0" stroke-width="2" stroke-linecap="round" stroke-linejoin="round"/>
    <path d="M60.3237 86.5239V96" stroke="#A29EC0" stroke-width="2" stroke-miterlimit="10" stroke-linecap="round"/>
    <path d="M50.5926 82.8707C53.7475 82.8707 56.305 79.8884 56.305 76.2095C56.305 72.5306 53.7475 69.5483 50.5926 69.5483C47.4377 69.5483 44.8801 72.5306 44.8801 76.2095C44.8801 79.8884 47.4377 82.8707 50.5926 82.8707Z" stroke="#A29EC0" stroke-width="2" stroke-miterlimit="10" stroke-linecap="round"/>
    <path d="M69.9999 82.8707C73.1548 82.8707 75.7123 79.8884 75.7123 76.2095C75.7123 72.5306 73.1548 69.5483 69.9999 69.5483C66.845 69.5483 64.2874 72.5306 64.2874 76.2095C64.2874 79.8884 66.845 82.8707 69.9999 82.8707Z" stroke="#A29EC0" stroke-width="2" stroke-miterlimit="10" stroke-linecap="round"/>
    <path d="M89.4029 82.8707C92.5578 82.8707 95.1154 79.8884 95.1154 76.2095C95.1154 72.5306 92.5578 69.5483 89.4029 69.5483C86.248 69.5483 83.6904 72.5306 83.6904 76.2095C83.6904 79.8884 86.248 82.8707 89.4029 82.8707Z" stroke="#A29EC0" stroke-width="2" stroke-miterlimit="10" stroke-linecap="round"/>
    <path d="M70 63.2201C75.6738 63.2201 80.2732 58.5433 80.2732 52.7742C80.2732 47.0051 75.6738 42.3284 70 42.3284C64.3263 42.3284 59.7268 47.0051 59.7268 52.7742C59.7268 58.5433 64.3263 63.2201 70 63.2201Z" stroke="#A29EC0" stroke-width="2" stroke-linecap="round" stroke-linejoin="round"/>
    <path d="M62 52.7511C62.0016 53.6116 62.1505 54.4652 62.4397 55.2732C63.0397 53.728 64.0795 52.4028 65.4243 51.469C66.7691 50.5353 68.357 50.0361 69.9823 50.0361C71.6077 50.0361 73.1956 50.5353 74.5404 51.469C75.8852 52.4028 76.925 53.728 77.525 55.2732C77.8142 54.4652 77.963 53.6116 77.9647 52.7511C77.9646 48.4762 74.3814 45 69.9803 45C65.5792 45 62 48.4762 62 52.7511Z" fill="#B88DFC"/>
    <path d="M86.4941 52.7742H95.1868" stroke="#A29EC0" stroke-width="2" stroke-linecap="round" stroke-linejoin="round"/>
    <path d="M84.981 45.7555H90.8406" stroke="#A29EC0" stroke-width="2" stroke-linecap="round" stroke-linejoin="round"/>
    <path d="M85.002 59.7312H90.7186" stroke="#A29EC0" stroke-width="2" stroke-linecap="round" stroke-linejoin="round"/>
    <path d="M97.5955 55.1248C98.9234 55.1248 99.9999 54.0724 99.9999 52.7742C99.9999 51.4761 98.9234 50.4237 97.5955 50.4237C96.2676 50.4237 95.1912 51.4761 95.1912 52.7742C95.1912 54.0724 96.2676 55.1248 97.5955 55.1248Z" stroke="#A29EC0" stroke-width="2" stroke-linecap="round" stroke-linejoin="round"/>
    <path d="M93.2449 48.1061C94.5728 48.1061 95.6493 47.0537 95.6493 45.7555C95.6493 44.4574 94.5728 43.405 93.2449 43.405C91.917 43.405 90.8406 44.4574 90.8406 45.7555C90.8406 47.0537 91.917 48.1061 93.2449 48.1061Z" stroke="#A29EC0" stroke-width="2" stroke-linecap="round" stroke-linejoin="round"/>
    <path d="M93.1273 62.0818C94.4551 62.0818 95.5317 61.0294 95.5317 59.7312C95.5317 58.4331 94.4551 57.3807 93.1273 57.3807C91.7994 57.3807 90.7229 58.4331 90.7229 59.7312C90.7229 61.0294 91.7994 62.0818 93.1273 62.0818Z" stroke="#A29EC0" stroke-width="2" stroke-linecap="round" stroke-linejoin="round"/>
    <path d="M53.5055 52.7742H44.8086" stroke="#A29EC0" stroke-width="2" stroke-linecap="round" stroke-linejoin="round"/>
    <path d="M55.0188 45.7555H49.1592" stroke="#A29EC0" stroke-width="2" stroke-linecap="round" stroke-linejoin="round"/>
    <path d="M54.9977 59.7312H49.2769" stroke="#A29EC0" stroke-width="2" stroke-linecap="round" stroke-linejoin="round"/>
    <path d="M42.4044 55.1248C43.7323 55.1248 44.8088 54.0724 44.8088 52.7742C44.8088 51.4761 43.7323 50.4237 42.4044 50.4237C41.0765 50.4237 40 51.4761 40 52.7742C40 54.0724 41.0765 55.1248 42.4044 55.1248Z" stroke="#A29EC0" stroke-width="2" stroke-linecap="round" stroke-linejoin="round"/>
    <path d="M46.7508 48.1061C48.0787 48.1061 49.1551 47.0537 49.1551 45.7555C49.1551 44.4574 48.0787 43.405 46.7508 43.405C45.4229 43.405 44.3464 44.4574 44.3464 45.7555C44.3464 47.0537 45.4229 48.1061 46.7508 48.1061Z" stroke="#A29EC0" stroke-width="2" stroke-linecap="round" stroke-linejoin="round"/>
    <path d="M46.8727 62.0818C48.2006 62.0818 49.277 61.0294 49.277 59.7312C49.277 58.4331 48.2006 57.3807 46.8727 57.3807C45.5448 57.3807 44.4683 58.4331 44.4683 59.7312C44.4683 61.0294 45.5448 62.0818 46.8727 62.0818Z" stroke="#A29EC0" stroke-width="2" stroke-linecap="round" stroke-linejoin="round"/>
    <path d="M74.7917 68.8292C77.0571 68.1116 79.1399 66.93 80.9013 65.3633C82.6626 63.7966 84.0619 61.8807 85.0061 59.7435" stroke="#A29EC0" stroke-width="2" stroke-linecap="round" stroke-linejoin="round"/>
    <path d="M54.9939 59.7435C55.922 61.8431 57.2894 63.7296 59.008 65.2816C60.7266 66.8336 62.7584 68.0169 64.9728 68.7553" stroke="#A29EC0" stroke-width="2" stroke-linecap="round" stroke-linejoin="round"/>
    <path d="M55.0149 45.7555C54.0163 47.9664 53.5022 50.3573 53.5059 52.7742" stroke="#A29EC0" stroke-width="2" stroke-linecap="round" stroke-linejoin="round"/>
    <path d="M82.9045 42.3283C81.3989 40.3716 79.4505 38.782 77.2117 37.6841C74.9729 36.5862 72.5046 36.0098 70 36V36C67.4954 36.0098 65.027 36.5862 62.7883 37.6841C60.5495 38.782 58.6011 40.3716 57.0955 42.3283" stroke="#A29EC0" stroke-width="2" stroke-linecap="round" stroke-linejoin="round"/>
    <path d="M86.4941 52.7742C86.4978 50.3573 85.9837 47.9664 84.9851 45.7555" stroke="#A29EC0" stroke-width="2" stroke-linecap="round" stroke-linejoin="round"/>
    <defs>
        <filter id="filter0_d" x="0" y="0" width="140" height="140" filterUnits="userSpaceOnUse" color-interpolation-filters="sRGB">
            <feFlood flood-opacity="0" result="BackgroundImageFix"/>
            <feColorMatrix in="SourceAlpha" type="matrix" values="0 0 0 0 0 0 0 0 0 0 0 0 0 0 0 0 0 0 127 0" result="hardAlpha"/>
            <feOffset dy="4"/>
            <feGaussianBlur stdDeviation="10"/>
            <feColorMatrix type="matrix" values="0 0 0 0 0.835294 0 0 0 0 0.843137 0 0 0 0 0.886275 0 0 0 1 0"/>
            <feBlend mode="normal" in2="BackgroundImageFix" result="effect1_dropShadow"/>
            <feBlend mode="normal" in="SourceGraphic" in2="effect1_dropShadow" result="shape"/>
        </filter>
    </defs>
</svg>

<svg xmlns="http://www.w3.org/2000/svg" width="100" height="100" viewBox="0 0 100 100"><defs><style>.a{fill:#fff;}.b,.c{fill:none;stroke:#a29ec0;stroke-linecap:round;stroke-width:2px;}.b{stroke-linejoin:round;}.c{stroke-miterlimit:10;}.d{fill:#b88dfc;}</style></defs><circle class="a" cx="50" cy="50" r="50"/><path class="b" d="M95,83.11l4,3.41v9.36" transform="translate(-20 -16)"/><path class="b" d="M83.69,83.11l-4,3.41" transform="translate(-20 -16)"/><path class="b" d="M45,83.11l-4,3.41v9.36" transform="translate(-20 -16)"/><path class="b" d="M56.31,83.11l4,3.41" transform="translate(-20 -16)"/><path class="b" d="M64.34,83.11l-4,3.41" transform="translate(-20 -16)"/><path class="b" d="M75.65,83.11l4,3.41v9.36" transform="translate(-20 -16)"/><path class="c" d="M60.32,86.52V96" transform="translate(-20 -16)"/><path class="c" d="M50.59,82.87c3.16,0,5.72-3,5.72-6.66s-2.56-6.66-5.72-6.66-5.71,3-5.71,6.66S47.44,82.87,50.59,82.87Z" transform="translate(-20 -16)"/><path class="c" d="M70,82.87c3.15,0,5.71-3,5.71-6.66S73.15,69.55,70,69.55s-5.71,3-5.71,6.66S66.85,82.87,70,82.87Z" transform="translate(-20 -16)"/><path class="c" d="M89.4,82.87c3.16,0,5.72-3,5.72-6.66s-2.56-6.66-5.72-6.66-5.71,3-5.71,6.66S86.25,82.87,89.4,82.87Z" transform="translate(-20 -16)"/><path class="b" d="M70,63.22A10.45,10.45,0,1,0,59.73,52.77,10.36,10.36,0,0,0,70,63.22Z" transform="translate(-20 -16)"/><path class="d" d="M62,52.75a7.42,7.42,0,0,0,.44,2.52,8.29,8.29,0,0,1,3-3.8,8,8,0,0,1,9.12,0,8.24,8.24,0,0,1,3,3.8A7.67,7.67,0,0,0,78,52.75a8,8,0,0,0-16,0Z" transform="translate(-20 -16)"/><path class="b" d="M86.49,52.77h8.7" transform="translate(-20 -16)"/><path class="b" d="M85,45.76h5.86" transform="translate(-20 -16)"/><path class="b" d="M85,59.73h5.72" transform="translate(-20 -16)"/><path class="b" d="M97.6,55.12a2.35,2.35,0,1,0-2.41-2.35A2.38,2.38,0,0,0,97.6,55.12Z" transform="translate(-20 -16)"/><path class="b" d="M93.24,48.11a2.36,2.36,0,1,0-2.4-2.35A2.39,2.39,0,0,0,93.24,48.11Z" transform="translate(-20 -16)"/><path class="b" d="M93.13,62.08a2.35,2.35,0,1,0-2.41-2.35A2.37,2.37,0,0,0,93.13,62.08Z" transform="translate(-20 -16)"/><path class="b" d="M53.51,52.77h-8.7" transform="translate(-20 -16)"/><path class="b" d="M55,45.76H49.16" transform="translate(-20 -16)"/><path class="b" d="M55,59.73H49.28" transform="translate(-20 -16)"/><path class="b" d="M42.4,55.12A2.35,2.35,0,1,0,40,52.77,2.38,2.38,0,0,0,42.4,55.12Z" transform="translate(-20 -16)"/><path class="b" d="M46.75,48.11a2.36,2.36,0,1,0-2.4-2.35A2.39,2.39,0,0,0,46.75,48.11Z" transform="translate(-20 -16)"/><path class="b" d="M46.87,62.08a2.35,2.35,0,1,0-2.4-2.35A2.38,2.38,0,0,0,46.87,62.08Z" transform="translate(-20 -16)"/><path class="b" d="M74.79,68.83a16.79,16.79,0,0,0,6.11-3.47A16.41,16.41,0,0,0,85,59.74" transform="translate(-20 -16)"/><path class="b" d="M55,59.74a16.41,16.41,0,0,0,4,5.54,17,17,0,0,0,6,3.48" transform="translate(-20 -16)"/><path class="b" d="M55,45.76a17,17,0,0,0-1.5,7" transform="translate(-20 -16)"/><path class="b" d="M82.9,42.33a16.08,16.08,0,0,0-5.69-4.65A16.65,16.65,0,0,0,70,36h0a16.65,16.65,0,0,0-7.21,1.68,16.08,16.08,0,0,0-5.69,4.65" transform="translate(-20 -16)"/><path class="b" d="M86.49,52.77a17,17,0,0,0-1.5-7" transform="translate(-20 -16)"/></svg>
